X: 1
T: Cats Of Camazen, The
M: 4/4
L: 1/8
R: reel
K: Dmix
d2 cA BdcA | BGBc d2 cA | BdcA BdcA | BGBc d4 |
d2 cA BdcA | BGBc d2 cA | BdcA BdcA |1 AGFA G4 :|2 AGFA G2 gf ||
ec c2  Gcec | dB B2 GBdB | cABc ABcA | BGBc d2 gf |
ec c2 Gcec | dB B2 GBdB | cABc ABcA |1 AGFA G2 gf :|2 AGFA G4 ||
